X:1
T:My Lord, what a mornin'
T:My Lord, what a mornin'
T:Negro Spiritual
%%score { ( 1 3 ) | ( 2 4 ) }
L:1/8
M:4/4
K:E
V:1 treble nm="Piano" snm="Pno."
V:3 treble 
V:2 bass 
V:4 bass 
V:1
"^1" [EG]2 [EG]4 [DF][DG] | E2 [B,E]6 |"^2" [B,B]2 [B,B]4 [CG][CA] | [DF]2 [DF]4 cB | %4
w: My Lord, what a|mor- nin',|my Lord, what a|mor- nin', Oh *|
w: ||||
 [EG]2 [EG]4 AF |"^3" [CE]2 [CE]4 [FA][FA] | [EG]3 [B,E] [CF]2 [DF]2 |"^4" [EB]6 [CA][=CA] | %8
w: my Lord, what a|mor- nin', when the|stars be- gin to|fall, when the|
w: ||||
 [B,G]3 [B,E] [CF]2 [DF]2 | [B,E]6"^5" [B,E]2 | [EG]3 [EG] [DF] [DF]3 | %11
w: stars be- gin to|fall. You'll|hear the trum- pet|
w: ||* * 2. sin- ner|
 [B,E]4"^6" z [B,E][EG][EB] | [Ec]2 [^EB]2 [FA]2 [=EG]2 | [DF]8 | %14
w: sound to wake the|na- tions un- der-|ground,|
w: moan * * *|||
"^7" [EG][EG][EG][EG] [EA]2 [=CF]2 |"^8" [B,E]4 [CA]3 [CA] |"^9" [B,G]3 [B,E] [CF]2 [DF]2 | %17
w: Loo- king to my God's right|Hand, when the|stars be- gin to|
w: |||
"^10" [B,E]8 |] %18
w: fall.|
w: |
V:2
 [E,B,]2 [E,B,]4 [E,A,][E,B,] | [E,G,]2 [E,G,]6 | [G,,D,]2 [G,,D,]4 [F,,E,][F,,E,] | %3
w: |||
 [B,,F,]2 [B,,F,]4 [B,,B,]2 | [E,B,]2 [E,B,]4 [D,F,][D,F,] | [C,G,]2 [C,G,]4 [A,,C][A,,=C] | %6
w: |||
 [B,,B,]3 [B,,G,] [B,,A,]2 [B,,A,]2 | [G,,B,]6 [A,,E,][A,,E,] | %8
w: ||
 [B,,E,]3 [B,,G,] [B,,A,]2 [B,,A,]2 | [E,G,]6 [E,G,]2 | [E,B,]3 [E,B,] [B,,A,]2 [B,,A,]2 | %11
w: ||* * 3. Chis- tians|
 [E,G,]4 z [E,G,][E,B,][E,G,] | [A,,A,]2 [G,,B,]2 [F,,C]2 [^A,,C]2 | F,4 B,4 | %14
w: shoat * * *|||
 [E,B,][E,B,][=D,B,][D,B,] [C,A,]2 [A,,E,]2 | [G,,E,]4 [F,,E,]3 [F,,E,] | %16
w: ||
 [B,,E,]3 [B,,G,] [B,,A,]2 [B,,A,]2 | [E,G,]8 |] %18
w: ||
V:3
 x8 | x8 | x8 | x6 D2 | x6 ^B,B, | x8 | x8 | x8 | x8 | x8 | x8 | x8 | x8 | x8 | x8 | x8 | x8 | %17
 x8 |] %18
V:4
 x8 | x8 | x8 | x8 | x8 | x8 | x8 | x8 | x8 | x8 | x8 | x8 | x8 | B,,8 | x8 | x8 | x8 | x8 |] %18

